img/eventstack.svg

<svg width="444" height="123" viewBox="0 0 444 123" xmlns="http://www.w3.org/2000/svg"><title>Eventstack</title><g fill="#1A1918" fill-rule="evenodd"><path d="M323.916 86.796c-59.505-1.822-151.146 3.13-247.39 23.918-14.75 3.186-18.46 12.99-12.162 11.666 73.634-15.487 177.52-24.9 259.694-22.385 61.893 1.895 84.073 14.635 86.854 15.892 2.782 1.256 8.135-3.032 8.344-9.862.357-11.66-40.065-17.537-95.34-19.23M440.743 73.85c-.32.188-1.47.905-3.594.905-10.376 0-5.91-18.616-5.91-18.616s9.773-4.554 10.552-17.702c.395-6.658-2.71-12.074-9.002-12.447-6.372-.376-11.94 4.283-14.113 6.387 3.593-7.783 7.736-14.846 10.02-19.012 2.99-5.456-6.72-13.512-9.375-11.475-4.724 3.63-12.687 21.227-17.873 40.035-5.11 7.17-13.66 16.176-24.107 15.54-13.267-.805-3.777-24.75 3.682-24.295 2.39.145 1.15 4.178-.786 7.72-1.71 3.128 11.757 6.798 15.208-6.29 2.203-7.44-6.238-12.12-11.745-12.456-13.822-.84-26.374 12.694-27.675 26.665-.14 1.516-.184 2.93-.176 4.29-2.614 2.09-5.372 3.35-8.11 3.19-2.305-.138-4.563-2.45-4.357-5.928.415-7.005 2.645-12.832 6.944-19.24 3.943-5.88-9.456-17.66-13.32-7.442-.05.13-.097.26-.145.39-1.545-2.463-4.82-5.644-11.333-5.153-8.5.642-18.252 12.194-20.96 24.717-4.145 6.318-9.496 11.713-14.922 11.533-2.306-.076-4.624-2.33-4.508-5.81.21-6.34 2.238-12.806 4.782-18.753 3.378.29 6.524.975 8.994 2.32 7.217 3.93 5.437-10.255 2.49-11.35-2.07-.768-4.165-1.314-6.244-1.684 1.513-2.82 2.925-5.34 4.002-7.433 2.847-5.532-7.07-13.333-9.67-11.227-3.12 2.528-6.995 9.735-10.37 18.72-6.84 1.11-11.604 3.132-11.604 3.132-3.95-.13-5.895 8.606-1.594 8.75 1.88.06 5.404-.408 9.58-.82-2.308 8.196-3.94 16.847-4.19 24.33-.27 8.213 4.555 13.79 11.047 14.006 9.26.307 16.787-4.456 22.63-10.66 2.63 9.314 8.958 10.416 13.247 10.093 5.178-.39 9.37-3.572 12.368-6.85 2.365 4.976 7.656 8.238 11.064 8.44 6.652.393 12.367-1.867 17.19-5.42 3.008 4.557 8.213 6.912 15.474 7.353 9.1.553 16.793-4.092 22.864-10.13-.31 2.34-.543 4.626-.673 6.824-.03.3-.035.59-.028.87-.012 2.054.442 3.057 1.25 3.46 3.375 4.126 12.42 3.417 12.758-.366.325-3.626 1.084-8.566 2.065-13.36 2.587-.37 5.52-.837 5.52-.837-1.09 7.095.292 28.93 14.804 28.93 13.333 0 10.687-15.52 7.843-13.844zm-119.824-22c-1.916-.117-2.88-1.448-2.447-4.688 1.037-7.756 6.58-15.353 14.097-14.344 0 0-1.432 5.962-2.347 8.406-1.36 3.626-4.866 10.9-9.304 10.626zm94.644-3.615c.04-.108.077-.227.116-.332 1.803-4.867 6.226-8.074 9.94-7.854 1.138.067 1.734.86 1.688 1.628-.3 5.05-6.7 5.975-11.744 6.557zM77.1 94.093c8.057-.798 15.264-13.99 19.204-26.936 1.825.952 3.963 1.74 6.443 2.237 1.754 11.575 8.705 16.41 20.306 15.84 9.872-.486 17.868-9.037 23.563-17.932 0 .14-.01.292-.01.432-.006 15.306 11.667 16.02 13.417 10.77 2.268-6.804 9.065-20.84 14.393-27.754-.207 2.645-.314 5.336-.314 8.172 0 11.058 7.442 17.444 13.235 17.444 7.356 0 13.346-3.25 18.158-7.83 2.22 3.59 5.855 5.588 9.976 5.365 8.7-.47 16.038-5.198 21.927-11.238 2.91 3.83 7.894 8.216 15.334 7.813 9.084-.492 15.498-6.914 15.037-15.412-.54-9.982-11.784-22.344-11.784-22.344s2.675-5.592 2.43-10.125c-.42-7.758-15.812-5.908-14.84-3.06.9 2.634 1.124 5.853 1.093 8.64-.063.21-.095.465-.087.777.153 5.964-11.78 29.574-23.087 30.187-2.304.124-4.81-1.92-4.998-5.397-.328-6.062 1.176-12.39 3.27-18.31 3.726.054 7.23.186 9.732.373 8.194.613 3.16-11.145.054-11.62-1.414-.215-3.13-.274-5.005-.227 1.437-3.122 2.77-5.91 3.706-8.198 2.355-5.76-8.203-12.666-10.61-10.342-2.982 2.883-6.555 10.806-9.406 20.473-4 .713-6.852 1.348-6.852 1.348-3.89.7-3.96 9.652.277 8.89 1.02-.185 2.43-.33 4.086-.44-1.388 6.45-2.34 13.16-2.546 19.353-3.212 3.997-6.922 6.854-10.792 6.854-3.3 0-4.72-3.555-4.757-7.037-.073-7.017.746-11.557 4.588-18.25 2.386-4.156-3.345-10.45-8.272-10.84-.17-.09-.36-.15-.58-.15-6.613 0-18.714 19.227-23.114 29.134.18-2.23-.225-2.6.335-5 0 0 1.833-4.666 3.083-9.207 1.878-6.825-9.11-16.204-12.255-5.74-.907 3.02-1.677 6.206-2.335 9.445-2.36 6.46-10.424 25.22-24.665 25.9-3.494.167-5.584-1.44-6.646-3.892 7.163-2.022 22.82-7.994 22.17-20.807-.377-7.432-7.512-12.16-13.023-11.897-12.2.582-22.203 12.784-24.245 25.287-1.368-.442-2.718-1.053-3.96-1.88.81-4.828.98-9.058.333-11.833-1.453-6.242-5.208-7.667-9.25-7.667-5.167 0-7.06 6.04-6.792 11.584.5 10.365 5.827 14.442 5.827 14.442s-4.794 14.146-10.41 14.897c-7.725 1.032-4.04-22.59-3.3-25.675.888-3.71-5.64-8.955-10.324-8.33-6.087.814-6.036 15.175-5.417 24.022-3.438 7.494-9.58 17.31-18.57 18.6-6.69.96-9.536-3.17-9.73-11.95-.067-2.974.127-5.95.498-8.88 5.05-1.128 10.063-1.928 14.322-2.046 4.178-.116 6.495-3.998 5.33-9.24-1.02-4.594-2.377-5.82-6.853-4.95-1.91.37-5.355.87-9.505 1.6 2.134-6.76 4.72-12.47 6.54-16.118 7.33-1.54 14.34-2.267 19.063-1.082 2.92.733 5.79-2.247 5.813-8.12.025-6.292-5.134-8.03-8.11-7.556-7.047 1.122-40.312 6.8-49.598 15.278-4.614 4.213-3.046 13.537 1.13 11.56 1.472-.7 6.53-2.723 13.05-4.898-.93 2.853-2.595 8.257-4.044 14.61-7.04 2.118-13.523 5.03-16.686 9.08-3.844 4.926-.397 13.253 2.317 11.084 1.106-.884 5.753-2.85 11.873-4.894-.242 2.863-.32 5.678-.168 8.327 1.16 20.05 14.91 25.67 22.445 25.617 11.326-.08 19.09-10.83 23.914-21.026 2.32 5.445 6.708 11.482 14.67 10.693zM248.774 56.86c-2.24.12-3.725-.975-4.71-2.32 2.463-3.51 4.51-7.028 6.127-10.14 1.326 2.335 2.6 5.11 2.81 7.452.21 2.34-1.202 4.844-4.227 5.008zM125.467 45.59c2.393-.113 1.142 4.5-.96 7.085-1.557 1.912-2.698 3.056-7.026 4.013 1.287-5.635 4.57-10.934 7.987-11.097z"/></g></svg>

<?xml version="1.0" encoding="UTF-8" standalone="no"?>
<svg width="444px" height="123px" viewBox="0 0 444 123" version="1.1" xmlns="http://www.w3.org/2000/svg" xmlns:xlink="http://www.w3.org/1999/xlink">
    <!-- Generator: Sketch 41.2 (35397) - http://www.bohemiancoding.com/sketch -->
    <title>Eventstack</title>
    <desc>Created with Sketch.</desc>
    <defs></defs>
    <g id="Page-1" stroke="none" stroke-width="1" fill="none" fill-rule="evenodd">
        <g id="Eventstack" fill="#1A1918">
            <path d="M323.916,86.796 C264.411,84.974 172.77,89.926 76.527,110.714 C61.775,113.9 58.067,123.704 64.364,122.38 C137.998,106.893 241.885,97.48 324.058,99.995 C385.951,101.89 408.131,114.63 410.912,115.887 C413.694,117.143 419.047,112.855 419.256,106.025 C419.613,94.364 379.191,88.488 323.916,86.796" id="Swoosh"></path>
            <path d="M440.743,73.849 C440.422,74.038 439.274,74.755 437.149,74.755 C426.774,74.755 431.239,56.139 431.239,56.139 C431.239,56.139 441.013,51.586 441.792,38.438 C442.187,31.78 439.081,26.364 432.79,25.991 C426.418,25.614 420.851,30.273 418.677,32.377 C422.27,24.594 426.413,17.531 428.696,13.365 C431.686,7.909 421.976,-0.147 419.322,1.89 C414.598,5.519 406.635,23.117 401.449,41.925 C396.34,49.096 387.79,58.101 377.343,57.466 C364.076,56.66 373.566,32.716 381.025,33.17 C383.416,33.315 382.174,37.348 380.239,40.889 C378.529,44.018 391.997,47.688 395.448,34.599 C397.651,27.16 389.21,22.479 383.703,22.144 C369.881,21.305 357.329,34.838 356.028,48.809 C355.887,50.326 355.844,51.74 355.852,53.1 C353.238,55.189 350.48,56.451 347.741,56.289 C345.437,56.152 343.179,53.839 343.385,50.362 C343.8,43.357 346.03,37.53 350.329,31.121 C354.273,25.243 340.874,13.461 337.009,23.68 C336.96,23.809 336.913,23.941 336.865,24.071 C335.32,21.607 332.044,18.426 325.532,18.917 C317.032,19.559 307.28,31.111 304.572,43.634 C300.427,49.952 295.076,55.347 289.65,55.167 C287.344,55.091 285.026,52.836 285.142,49.356 C285.352,43.017 287.38,36.551 289.924,30.604 C293.302,30.894 296.448,31.579 298.918,32.924 C306.135,36.853 304.355,22.669 301.409,21.575 C299.338,20.806 297.243,20.26 295.164,19.89 C296.677,17.069 298.089,14.549 299.166,12.457 C302.013,6.925 292.096,-0.876 289.497,1.23 C286.377,3.758 282.501,10.965 279.126,19.951 C272.285,21.06 267.522,23.082 267.522,23.082 C263.572,22.951 261.627,31.688 265.928,31.831 C267.807,31.893 271.332,31.424 275.507,31.011 C273.2,39.208 271.567,47.859 271.319,55.342 C271.047,63.555 275.873,69.133 282.365,69.348 C291.624,69.655 299.152,64.892 304.995,58.687 C307.626,68.002 313.953,69.104 318.242,68.781 C323.42,68.39 327.612,65.208 330.61,61.929 C332.975,66.906 338.266,70.168 341.674,70.37 C348.326,70.763 354.041,68.503 358.863,64.95 C361.872,69.507 367.077,71.862 374.338,72.303 C383.438,72.856 391.131,68.211 397.202,62.173 C396.892,64.513 396.659,66.799 396.529,68.997 C396.501,69.298 396.495,69.586 396.502,69.867 C396.49,71.921 396.944,72.924 397.753,73.327 C401.127,77.453 410.171,76.744 410.51,72.961 C410.835,69.334 411.594,64.394 412.575,59.601 C415.162,59.229 418.096,58.763 418.096,58.763 C417.004,65.858 418.387,87.693 432.899,87.693 C446.233,87.693 443.587,72.172 440.743,73.849 Z M320.919,51.85 C319.004,51.733 318.039,50.402 318.473,47.162 C319.51,39.406 325.053,31.809 332.57,32.818 C332.57,32.818 331.138,38.78 330.223,41.224 C328.864,44.85 325.357,52.124 320.919,51.85 Z M415.564,48.235 C415.603,48.127 415.641,48.008 415.68,47.903 C417.483,43.036 421.906,39.829 425.62,40.049 C426.758,40.117 427.354,40.91 427.308,41.678 C427.009,46.727 420.609,47.653 415.564,48.235 Z" id="Combined-Shape"></path>
            <path d="M77.101,94.093 C85.157,93.295 92.364,80.104 96.304,67.157 C98.129,68.109 100.267,68.896 102.747,69.394 C104.501,80.969 111.452,85.805 123.053,85.234 C132.925,84.748 140.921,76.197 146.616,67.302 C146.615,67.443 146.607,67.594 146.607,67.734 C146.6,83.04 158.273,83.755 160.023,78.505 C162.291,71.7 169.088,57.664 174.416,50.75 C174.209,53.395 174.102,56.086 174.102,58.922 C174.102,69.98 181.544,76.366 187.337,76.366 C194.693,76.366 200.683,73.115 205.495,68.537 C207.715,72.125 211.35,74.124 215.471,73.901 C224.17,73.43 231.508,68.702 237.397,62.662 C240.306,66.493 245.291,70.878 252.731,70.475 C261.814,69.983 268.228,63.561 267.767,55.063 C267.227,45.081 255.983,32.719 255.983,32.719 C255.983,32.719 258.658,27.128 258.413,22.595 C257.992,14.837 242.601,16.687 243.574,19.536 C244.473,22.169 244.697,25.388 244.666,28.174 C244.603,28.384 244.571,28.64 244.579,28.952 C244.733,34.916 232.801,58.526 221.493,59.139 C219.189,59.264 216.684,57.22 216.495,53.743 C216.167,47.681 217.671,41.354 219.765,35.434 C223.491,35.487 226.996,35.619 229.497,35.806 C237.691,36.419 232.658,24.661 229.551,24.187 C228.136,23.971 226.42,23.912 224.545,23.959 C225.982,20.838 227.316,18.05 228.251,15.762 C230.605,10.003 220.047,3.096 217.641,5.42 C214.658,8.303 211.085,16.226 208.234,25.893 C204.234,26.606 201.382,27.241 201.382,27.241 C197.492,27.941 197.423,36.892 201.659,36.129 C202.679,35.945 204.089,35.801 205.746,35.691 C204.358,42.141 203.405,48.849 203.2,55.043 C199.988,59.04 196.278,61.897 192.408,61.897 C189.107,61.897 187.687,58.342 187.651,54.86 C187.577,47.843 188.396,43.303 192.238,36.61 C194.624,32.454 188.893,26.16 183.966,25.771 C183.795,25.681 183.607,25.621 183.385,25.621 C176.773,25.62 164.672,44.847 160.272,54.754 C160.452,52.524 160.047,52.154 160.607,49.755 C160.607,49.755 162.44,45.088 163.69,40.547 C165.568,33.722 154.58,24.343 151.435,34.807 C150.528,37.826 149.758,41.013 149.1,44.252 C146.739,50.712 138.676,69.473 124.435,70.152 C120.941,70.319 118.851,68.712 117.789,66.26 C124.953,64.238 140.61,58.266 139.96,45.453 C139.583,38.021 132.448,33.294 126.937,33.556 C114.737,34.138 104.734,46.34 102.692,58.843 C101.324,58.401 99.974,57.79 98.732,56.963 C99.542,52.135 99.711,47.905 99.065,45.13 C97.612,38.888 93.857,37.463 89.815,37.463 C84.648,37.463 82.756,43.504 83.023,49.047 C83.523,59.412 88.85,63.489 88.85,63.489 C88.85,63.489 84.056,77.636 78.44,78.387 C70.715,79.419 74.4,55.798 75.14,52.712 C76.028,49.002 69.5,43.757 64.816,44.383 C58.729,45.196 58.78,59.557 59.399,68.404 C55.962,75.898 49.82,85.713 40.83,87.004 C34.141,87.965 31.294,83.835 31.099,75.053 C31.033,72.08 31.227,69.103 31.598,66.175 C36.647,65.046 41.661,64.246 45.92,64.128 C50.098,64.012 52.415,60.13 51.251,54.889 C50.23,50.294 48.873,49.069 44.397,49.937 C42.488,50.307 39.042,50.807 34.892,51.538 C37.026,44.778 39.612,39.069 41.433,35.42 C48.762,33.88 55.772,33.153 60.495,34.338 C63.414,35.071 66.285,32.091 66.308,26.219 C66.333,19.926 61.174,18.188 58.198,18.662 C51.151,19.784 17.886,25.461 8.6,33.94 C3.986,38.153 5.554,47.477 9.729,45.499 C11.202,44.801 16.26,42.777 22.781,40.602 C21.849,43.455 20.185,48.859 18.736,55.211 C11.697,57.33 5.213,60.241 2.05,64.293 C-1.794,69.218 1.653,77.545 4.367,75.376 C5.473,74.492 10.12,72.527 16.24,70.482 C15.998,73.345 15.919,76.16 16.072,78.809 C17.232,98.859 30.982,104.481 38.517,104.427 C49.843,104.346 57.607,93.598 62.431,83.401 C64.749,88.845 69.138,94.882 77.101,94.093 Z M248.773,56.86 C246.534,56.981 245.048,55.885 244.062,54.54 C246.526,51.031 248.572,47.512 250.19,44.4 C251.516,46.735 252.789,49.51 252.999,51.852 C253.209,54.193 251.798,56.696 248.773,56.86 Z M125.467,45.591 C127.86,45.477 126.609,50.09 124.506,52.675 C122.95,54.587 121.809,55.731 117.481,56.688 C118.767,51.053 122.049,45.754 125.467,45.591 Z" id="Combined-Shape"></path>
        </g>
    </g>
</svg>
